X: 1
T: The Lilting Banshee et al.
R: jig
M: 6/8
L: 1/8
Z: Contributed 2015-11-17 01:06:22 by pinitou pinitou@gmail.com
K: Ador
|:EAA EAA|BAB G2A|Bee edB|def gfg|
eAA eAA|BAB G2A|Bee edB|dBA A3:|
eaa age|dBA G2A|Bee edB|def gfg|
eaa age|dBA G2A|Bee edB|dBA A3:|
T: The Swallowtail
K: Edor
GEE BEE|GEE BAG|FDD ADD|dcd AGF|
GEE BEE|GEG B2c|dcd AGF|GEE E3:|
|:Bcd e2f|e2f edB|Bcd e2f|edB d3|
Bcd e2f|e2f edB|dcd AGF|GEE E3:||
T: Calliope House
R: jig
M: 6/8
L: 1/8
K: Dmaj
|dAA fAA|eAA fAA|Bee e2d|efe dBA|FAA A2F|
A2B d2e|1 f2f fed|e3 e2A:|2 f2f edc|d3 efg||
a2a faa|eaa faa|g2g fgf|efe dBA|FAA A2F|
A2B d2e|1 f2f fed|e3 efg:|2 f2f edc| d3 d3||
T: The Mist On The Mountain
R: jig
M: 6/8
L: 1/8
K: Ador
G|EAA ABd|e2 A AGE|~G3 GAB|dBA GED|
EAA ABd|e2A AGE|efg dBG|BAG A2:|
a|age a2b|age edB|AGE G2A|BAB GED|
age a2b|age edB|AGE G2A|BAG A3|
age a2b|age edB|AGE G2A|BAB GED|
EDE G2A|BAG ABd|efg dBG|BAG A2||
T: The Rambling Pitchfork
R: jig
M: 6/8
L: 1/8
K: Dmaj
F2F AFF|dFF AFF|G2G ABc|ded cAG|
FEF AFF|dFF AFF|GFG BAG|FDD D3:|
d2e fed|ecA ABc|dcd fed|faf gfe|
d2e fed|ecA BAF|GFG BAG|FDD D3:|
T: The Geese In The Bog
R: jig
M: 6/8
L: 1/8
K: Ador
B|cEE GEE|cEE GAB|cEE GED|EAA A2B|
cEE GEE|cEE GAB|cBA GED|EAA A2:|:B|
cde ged|eaf ged|cde ged|eag ~a3|
cde ged|eaf ged|cBA GED|EAA A2:|
T: Fanny Power
R: jig
M: 6/8
L: 1/8
K: Gmaj
M: 3/4
|: D2 |G4 D2 | G3 A B2 | c4 B2 | A4 G2 | F3 E D2 | D2 E2 D2 | F4 G2 | A3 B c2 |
B3 A G2 | B3 c d2 | e4 A2 | A4 G2 | G3 F E2 | D2 G2 F2 | G6- | G4 :|
|: d2 |d2 Bc d2 | d2 Bc d2 | G3 A G2 | G2 B2 d2 | e2 cd e2 | e2 cd e2 | A3 B A2 | A2 B2 c2 |
B2 Bc d2 | e2 ef g2 | fa- a2 f | d4 c2 | B3 A G2 | Ac- c2 F2 | G6- | G4 :|
T: Tobin's Favourite
R: jig
M: 6/8
L: 1/8
K: Dmaj
|:DFA dcd|ecA efg|~f3 gfg|ecA GFE|
|DFA dB/c/d|ecA efg|faf gec|1 edc d2 A:|2 edc d2 e||
|:~f3 fga|efg efg|~f3 ~g3|ecA GFE|
|DFA dcd|ecA efg|f/g/af gec|1 edc d2 e:|2 edc d2 A||
T: The Rakes Of Kildare
R: jig
M: 6/8
L: 1/8
K: Ador
|:EAA AGA| Bcd e2f| g2g efg| dBA G2D|
EAA AGA|Bcd e2f|gfe dBG| ABA A3:|
aea aea| aea b2a|g2g efg|dBA G3|
[1 aea aea| aea b2a| gfe dBG|ABA A3:|
[2 EAA AGA| Bcd e2f|gfe dBG| ABA A3||
T: The Frost Is All Over
R: jig
M: 6/8
L: 1/8
K: Dmaj
def edc|dAF GFE|DFA DFA|Bcd edc|
def edc|dAF GFE|DFA DFA|1 Bdc d2A:|2 Bdc d2e||
~f3 afd|~g3 bag|~f3 afd|gfg efg|
~f3 afd|~g3 bag|fga efg|fdc d2e|
~f3 afd|~g3 bag|~f3 afd|~g3 e2g|
fga efg|fdB AFA|Bcd ede|fdc d3||
T: The Tar Road To Sligo
R: jig
M: 6/8
L: 1/8
K: Bmin
f2B Bcd|ecA BAG|F2A ABc|dcd efg|
f2B Bcd|ecA BAG|FGA A2g|1fdc d2e:|2fdc d2B||
A2f A2f|gfg efg|afd dcd|Bed cBA|
1A2f A2f|gfg efg|afd bge|edc dcB:|
2fdA geg|~a3 bge|~a3 bge|edc d3:|
T: Willie Coleman's
R: jig
M: 6/8
L: 1/8
K: Gmaj
B2G AGE|GED G2d|edB dgb|age dBA|
B2G AGE|GED G2d|edB dBA|BGG G3:|
~g3 edB|dgb age|~g3 edB|GBd e3|
~g3 edB|dgb age|dBd gdB|AGF G3:|
T: The Killavil
R: jig
M: 6/8
L: 1/8
K: Edor
A|BEE BEE|Bdf edB|BAF FEF|DFA dBA|
|BEE BEE|Bdf edB|BAF DAF|FED E2:|A|
Bef gfe|faf edB|BAF FEF|DFA dBA|
Bef gfe|~f3 edB|BAF DAF|FED E2:|
T: Behind The Haystack
R: jig
M: 6/8
L: 1/8
K: Dmaj
d2e fdB|d2e fdB|AFE ~E3|AFE EFA|
d2e fdB|d2e fdB|AFD ~D3|AFD DFA:|
|:~B3 BAF|ABc dcB|AFE ~E3|AFE EFA|
~B3 BAF|ABc dcB|AFD ~D3|1 AFD DFA:|2 AFD D2f||
|:~g3 faf|ede fdB|AFE ~E3|AFE E2f|
~g3 faf|ede fdB|AFD ~D3|1 AFD D2f:|2 AFD DFA||
T: The Cat's Meow
R: jig
M: 6/8
L: 1/8
K: Dmaj
D | FAd fef | afe dBA | BdB BAF | dAF E2 E |
FAd fef | afe dBA | B/2c/2de fdB | AFE D2 :|
e | fdB AFA | DFA d2 e | gef ged | ced cBA |
fdB AFA | DFA d2 e | gec age | edc d2 :|
d | FAd fef | agf agf | Ace g2 g | gfe gfe |fef gfg |
aga bag |1 faa gec | edc d2 :|2 fdB gec | dAF D2 ||
T: The Mug Of Brown Ale
R: jig
M: 6/8
L: 1/8
K: Ador
f|eAA fAA|~g3 age|dBA ~G3|BAG Bcd|
eAA fAA|~g3 age|def gdB|cAA A2:|
z|efg ~a3|aba age|def ~g3|gba ged|
efg ~a3|aba age|def gdB|cAA A2:|
T: Scatter The Mud
R: jig
M: 6/8
L: 1/8
K: Ador
Bd|eAA BAG|EAA ABd|eAA BAB|dBG GBd|
eAA BAG|EAA AGE|GAB d2e|1dBA A:|2dBA A3|:
aba g2e|dBG AGE|aba g2e|dBd g3|
aba g2e|dBG AGE|GAB d2e|dBA A3:|
T: The Leitrim Fancy
R: jig
M: 6/8
L: 1/8
K: Dmaj
GBG FAF|E2B BAB|GBG FAF|D2A AFD|
GBG FAF|E2B BAB|G2B dBG|ABG FED:|
G2B dBd|edB dBA|G2B dBG|ABG FED|
G2B dBd|edB def|gfe dBG|ABG FED:|
T: Lanigan's Ball
R: jig
M: 6/8
L: 1/8
K: Emin
EFE G2A|B2A B^cd|D2E F2G|ABA AFD|
EFE G2A|B2A B^c^d|e=dB =cBA|BGE E2:|
|:d|e2f gfg|eag fe^d|e2f gfg|fdB B3|
e2f gfg|eag fe^d|e=dB cBA|BGE E2:||
T: The Carraroe
R: jig
M: 6/8
L: 1/8
K: Dmaj
DED F2A|dfe d2A|BAF Adf|
afd e2f|DED F2A|dfe d2A|
~B3 AFA|1 dAF E2F:|2 dAF E2D||
dfa afa|bge edB|dfa afa|
bge efe|dfa afa|bge edB|
d2B AFA|1 dAF E2D:|2 dAF E2F||
T: O'Sullivan's March
R: jig
M: 6/8
L: 1/8
K: Gmaj
D |: GBA ABd | edB A2 G | GBA ~B3 |1 AGG G2 D :|2 AGG G2 g ||
|: e2 g e2 g | ege edB | ded dBd | deB {d}BAG |
cBc dcd | e/f/gB A2 G | GBA ~B3 |1 AGG G2 g :|2 AGG G2 D ||
|: GAB dBA | GAB ~B3 | GAB edB | dBA A2 B |
GAB dBA | BAB ~g3 | fed edB |1 dBA A2 D :|2 dBA A2 B ||
|: dBB gBB | dBB d2 e | dBB gfg | edB A2 B/A/ |
GAB dBA | BAB ~g3 | fed edB | dBA A2 B :|
T: Dever The Dancer
R: slip jig
M: 9/8
L: 1/8
K: Emin
|BEE BEF G2A|BEE BAG FGA|BEE BEF G2A|Bcd ABG FED:|
|ded cAF G2A|{B}ded def gfe|ded cAF G2A|Bcd ABG FED:|
T: Tatter Jack Walsh
R: jig
M: 6/8
L: 1/8
K: Dmix
|: fef ded | cAB c2 A | dcA GFG| Add efg |
fef ded | cAB c2 A | dcA GFG | Ad^c d3 :|
|: dfa afd | dfa agf | g2 a ged | ^cde gfg |
afd fed | cAB cde | dcA GFG| Ad^c d3 :|
T: Off She Goes
R: jig
M: 6/8
L: 1/8
K: Dmaj
|:F2A G2B|ABc d2A|F2A G2B|AFD E3|
F2A G2B|ABc d2e|f2d g2f|edc d3:|
|:faf d2f|gbg e2g|faf d2f|ecA A2g|
faf d2f|gbg e2g|f2d g2f|edc d3:||
T: Up Sligo
R: jig
M: 6/8
L: 1/8
K: Emin
|: EBB BAG | Fdd AFD | EBB EBB | AGF EFD |
EBB BAG | Fdd AB^c | ded BGB | AGF E2D :|
|: Bee ede | fef dBA | Bee Bee | fe^c d2A |
Bee ede | fef dBA | BdB GBd | AGF E2E :|
T: The Miller's Maggot
R: jig
M: 6/8
L: 1/8
K: Gmaj
|:G2 A B2 A|B2 A BGE|G2 A B2 A|Bee dBA|
|G2 A B2 A|B2 A BGE|gfe dBA|Bee dBA:|
|:e2 f fge|d2 B BAG|e2 f fgg|aga bge|
|e2 f fge|d2 B BAG|A2 B cBA|Bee dBA:|
T: The Haunted House
R: jig
M: 6/8
L: 1/8
K: Gmaj
D |: GFG AGA | BGE EDE | GBd e2 e | ege dBA |
GFG AGA | BGE EDE | GBd ege | dBA G2 D :|
|:GBd e2 e | ege dBA | GAB d2 B | ded BAG |
[1 GBd e2 e | ege dBA | GBd ege | dBA G3 :|
[2 GFG AGA | BGE EDE | GBd ege | dBA G2 D ||
T: The Trip To Athlone
R: jig
M: 6/8
L: 1/8
K: Dmaj
|:ABA D2d|{e}dcA AGF|ABG ABc|dAB =cde|
ABA D2d|{e}dcA AGF|GFG Ade|1 fdc d2d:|2 fdc d2e||
|:fed edc|Adc Ade|fed efg|AB=c def|
~g3 age|{a}ed=c AGF|~G3 Ade|1 fdc d2e:|2 fdc d2d||
T: Tom Billy's
R: jig
M: 6/8
L: 1/8
K: Amix
|:~a3 ece|edB ~A3|eaa ece|dcB Ace|
~a3 ece|edB ~A3|GBd gfe|fdB Ace:|
|:~g3 ~a3|bag fed|faf g2e|edB def|
~g3 ~a3|bge gab|age dBe|~A3 Ace:||
T: Munster Buttermilk
R: jig
M: 6/8
L: 1/8
K: Gmaj
gfg age|d2B BAB|d2B BAB|dBG G2d|
gfg age|d2B BAB|dBG GAB|A3 G3:|
|:d2e g2a|b2b bag|a2a age|gfg age|
d2e g2a|b2b bag|age dgb|a3 g3:||
T: The Boys Of The Town
R: jig
M: 6/8
L: 1/8
K: Gmaj
|:D|GFG GBd|edB dBA|GFG GBd|edB AFD|
GFG GBd|edB gfg|edB AGA|BGG G2:|
|:B|def gfg|afd efB|def gfg|afd e2d|
[1 def gfg|afd efg|edB AGA|BGG G2B:|
[2 def gbb|faa efg|edB AGA|BGG G2||
T: Christy Barry's
R: jig
M: 6/8
L: 1/8
K: Gmaj
M: 12/8
|: F |G2 A B2 G ABB d2 e | ged BGG ABA GED |
G2 A B2 G ABB d2 e | ged BGG AGG G2 :|
|: f |g3 gfg agf d2 e | ged BGG ABA GED |
G2 A B2 G ABB d2 e | ged BGG AGG G2 :|



